public/assets/icons/socialMedia/icon_whatsapp_white.svg

<svg width="24" height="24" viewBox="0 0 24 24" fill="none" xmlns="http://www.w3.org/2000/svg">
<path d="M11.5158 2.012C6.20576 2.262 2.01676 6.652 2.03276 11.929C2.03539 13.4823 2.40728 15.0127 3.11776 16.394L2.05976 21.495C2.04685 21.5588 2.05023 21.6248 2.06959 21.6869C2.08894 21.749 2.12365 21.8053 2.1705 21.8504C2.21735 21.8956 2.27483 21.9282 2.33763 21.9452C2.40042 21.9623 2.4665 21.9633 2.52976 21.948L7.56376 20.764C8.89704 21.4229 10.3607 21.7755 11.8478 21.796C17.2748 21.879 21.7988 17.601 21.9678 12.216C22.1498 6.441 17.3508 1.735 11.5158 2.011V2.012ZM17.5228 17.379C16.7972 18.1019 15.9362 18.6746 14.989 19.0641C14.0417 19.4536 13.027 19.6524 12.0028 19.649C10.7978 19.6527 9.60844 19.3761 8.52876 18.841L7.82776 18.494L4.74076 19.22L5.39076 16.089L5.04476 15.417C4.48386 14.3297 4.193 13.1234 4.19676 11.9C4.19676 9.83 5.00876 7.883 6.48276 6.42C7.95196 4.9657 9.93551 4.14964 12.0028 4.149C14.0888 4.149 16.0488 4.955 17.5228 6.419C18.249 7.13464 18.8253 7.98785 19.2179 8.92877C19.6106 9.86969 19.8118 10.8794 19.8098 11.899C19.8098 13.951 18.9848 15.929 17.5228 17.38V17.379Z" fill="white"/>
<path d="M16.8419 14.045L14.9109 13.495C14.7863 13.4592 14.6544 13.4576 14.5289 13.4903C14.4035 13.5231 14.2891 13.5889 14.1979 13.681L13.7259 14.159C13.6282 14.2579 13.5036 14.3259 13.3675 14.3543C13.2314 14.3828 13.09 14.3705 12.9609 14.319C12.0479 13.952 10.1259 12.256 9.63489 11.407C9.56607 11.2871 9.53462 11.1493 9.5446 11.0114C9.55458 10.8735 9.60552 10.7418 9.69089 10.633L10.1029 10.103C10.1822 10.0015 10.2324 9.88023 10.2481 9.75234C10.2638 9.62445 10.2443 9.4947 10.1919 9.377L9.37989 7.553C9.33397 7.45105 9.26502 7.36114 9.17848 7.29034C9.09193 7.21954 8.99014 7.16979 8.88111 7.14498C8.77209 7.12017 8.65879 7.12098 8.55013 7.14736C8.44147 7.17374 8.34041 7.22496 8.25489 7.297C7.71589 7.75 7.07589 8.437 6.99889 9.2C6.86189 10.543 7.44189 12.236 9.63589 14.27C12.1709 16.619 14.2019 16.93 15.5229 16.611C16.2729 16.431 16.8729 15.708 17.2499 15.117C17.3102 15.0231 17.3476 14.9164 17.3592 14.8054C17.3707 14.6945 17.356 14.5823 17.3163 14.4781C17.2767 14.3738 17.2131 14.2803 17.1307 14.2051C17.0483 14.1299 16.9493 14.075 16.8419 14.045Z" fill="white"/>
</svg>

<svg xmlns="http://www.w3.org/2000/svg" width="24" height="24" fill="none"><path fill="#fff" d="M11.516 2.012c-5.31.25-9.5 4.64-9.483 9.917a9.798 9.798 0 0 0 1.085 4.465L2.06 21.495a.387.387 0 0 0 .47.453l5.034-1.184a9.98 9.98 0 0 0 4.284 1.032c5.427.083 9.95-4.195 10.12-9.58.182-5.775-4.617-10.481-10.452-10.205v.001Zm6.007 15.367a7.785 7.785 0 0 1-5.52 2.27 7.77 7.77 0 0 1-3.474-.808l-.701-.347-3.087.726.65-3.131-.346-.672a7.62 7.62 0 0 1-.848-3.517c0-2.07.812-4.017 2.286-5.48a7.85 7.85 0 0 1 5.52-2.271c2.086 0 4.046.806 5.52 2.27a7.67 7.67 0 0 1 2.287 5.48c0 2.052-.825 4.03-2.287 5.481v-.001Z"/><path fill="#fff" d="m16.842 14.045-1.931-.55a.723.723 0 0 0-.713.186l-.472.478a.707.707 0 0 1-.765.16c-.913-.367-2.835-2.063-3.326-2.912a.694.694 0 0 1 .056-.774l.412-.53a.71.71 0 0 0 .089-.726L9.38 7.553a.723.723 0 0 0-1.125-.256c-.54.453-1.18 1.14-1.256 1.903-.137 1.343.443 3.036 2.637 5.07 2.535 2.349 4.566 2.66 5.887 2.341.75-.18 1.35-.903 1.727-1.494a.714.714 0 0 0-.408-1.072Z"/></svg>
